X: 04079
T: RAPHY'S RED HAT
C: Bob McQuillen 28 Jan 79
B: Bob's Note Book 04 #79
R: jig
Z: 2020 John Chambers <jc:trillian.mit.edu>
M: 6/8
L: 1/8
K: D
A, \
| DFD EFE | DFA B2A | fef edB | AFD E2 A, |\
| DFD EFE | DFA B2A | fed dBA | B2c d2 :|
|: e \
| fed dBA | Bcd dBA | fed dBA | Bee e2e |\
| fed dBA | Bcd dBA | GAB Adf | edc d2 :|
%%begintext align
%% Really it's my red hat, but
%% Raphy Haddock brought it
%% to me, all the way
%% from Ireland! I love
%% both, the hat and Raphy.
%%endtext

%%sep 1 1 500

%%sep 1 1 500

